src/assets/logo.svg

<svg width="164" height="36" viewBox="0 0 164 36" fill="none" xmlns="http://www.w3.org/2000/svg">
    <g clip-path="url(#clip0_7361_3027)">
        <path d="M93.5054 13.6524C96.6727 13.6524 100.271 14.8695 100.486 18.764H96.0577C95.9655 17.6383 94.92 17.121 93.5362 17.121C92.2447 17.121 91.6604 17.6079 91.6604 18.1859C91.6604 18.6728 92.0294 19.1292 93.1979 19.3421L95.9962 19.7985C98.7945 20.3158 100.64 21.6545 100.64 24.2712C100.64 27.6789 97.5337 29.2611 93.6592 29.2611C89.7539 29.2611 86.5866 27.6485 86.2791 23.7235L90.7071 23.754C90.9224 25.0319 91.9987 25.61 93.5669 25.61C94.8892 25.61 95.6887 25.2144 95.6887 24.5755C95.6887 24.0886 95.2275 23.6931 94.2434 23.541L91.2299 23.0237C88.6469 22.5978 86.8633 21.1677 86.8633 18.5815C86.8633 15.478 89.5386 13.6524 93.5054 13.6524ZM74.8398 13.7098C76.4667 13.7098 77.8174 14.1353 78.9225 14.8344V14.0442H83.8954V28.785H78.9225V27.9644C77.8174 28.6634 76.4667 29.0889 74.8398 29.0889C70.8185 29.0889 67.4419 25.7761 67.4419 21.3994C67.4419 16.9923 70.8185 13.7098 74.8398 13.7098ZM45.712 8.08611L53.1686 19.1448L60.5944 8.08611H64.4768V28.802H59.2695V18.4136L54.6168 25.5119V25.5423H51.7204V25.5119L47.037 18.3527L47.0678 28.802H41.8605V8.08611H45.712ZM108.36 7.22534V19.5939L113.564 14.063H119.507L113.842 20.0802L120 28.802H114.026L110.454 23.6966L108.36 25.915V28.802H103.372V7.22534H108.36ZM75.8221 17.7218C73.7961 17.7218 72.3227 19.363 72.3227 21.3994C72.3227 23.4358 73.7961 25.0466 75.8221 25.0466C76.9272 25.0466 78.0016 24.7427 78.9225 23.6789V19.1199C78.0016 18.0561 76.9272 17.7218 75.8221 17.7218Z" fill="white"/>
        <path fill-rule="evenodd" clip-rule="evenodd" d="M17.28 34.32C26.2933 34.32 33.6 27.0133 33.6 18C33.6 8.98668 26.2933 1.67997 17.28 1.67997C8.26671 1.67997 0.96 8.98668 0.96 18C0.96 27.0133 8.26671 34.32 17.28 34.32ZM34.56 18C34.56 27.5435 26.8235 35.28 17.28 35.28C7.73652 35.28 0 27.5435 0 18C0 8.45649 7.73652 0.719971 17.28 0.719971C26.8235 0.719971 34.56 8.45649 34.56 18Z" fill="white"/>
        <path fill-rule="evenodd" clip-rule="evenodd" d="M27.7098 13.7523V19.4907H10.2183L9.46571 19.4908C10.2622 22.9727 13.4233 25.5735 17.2016 25.5735C20.3253 25.5735 23.0271 23.7959 24.3196 21.2124L27.7098 21.2123V26.0326C27.7098 27.1736 26.7701 28.0985 25.6108 28.0985H8.81895C7.65972 28.0985 6.71997 27.1736 6.71997 26.0326V13.7523H27.7098ZM22.3065 21.2124C21.1933 22.8141 19.3222 23.8653 17.2016 23.8653C15.0811 23.8653 13.2099 22.8141 12.0968 21.2124H22.3065ZM12.7254 15.1295C11.0805 15.1295 9.71969 16.3267 9.49337 17.884L11.2826 17.884C11.4793 17.2846 12.0509 16.851 12.7254 16.851C13.3999 16.851 13.9715 17.2846 14.1682 17.884L15.9574 17.884C15.7311 16.3267 14.3703 15.1295 12.7254 15.1295ZM21.7044 15.1295C20.0595 15.1295 18.6987 16.3267 18.4724 17.884L20.2615 17.884C20.4583 17.2846 21.0299 16.851 21.7044 16.851C22.3789 16.851 22.9505 17.2846 23.1472 17.884L24.9364 17.884C24.7101 16.3267 23.3493 15.1295 21.7044 15.1295ZM25.6108 7.43994C26.7701 7.43994 27.7098 8.36486 27.7098 9.50579V12.0307H6.71997V9.50579C6.71997 8.36486 7.65972 7.43994 8.81895 7.43994H25.6108Z" fill="white"/>
    </g>
    <path d="M124 12.72C124 6.09255 129.373 0.719971 136 0.719971H164V8.71997C164 15.3474 158.627 20.72 152 20.72H124V12.72Z" fill="#05050A"/>
    <path d="M133.69 7.43997C134.53 7.43997 135.19 7.60997 135.66 7.95997C136.16 8.32997 136.45 8.90997 136.52 9.68997H135.36C135.26 9.24997 135.07 8.92997 134.81 8.73997C134.55 8.53997 134.15 8.44997 133.63 8.44997C133.18 8.44997 132.84 8.50997 132.6 8.63997C132.3 8.78997 132.16 9.03997 132.16 9.37997C132.16 9.67997 132.32 9.92997 132.66 10.11C132.81 10.19 133.22 10.34 133.88 10.55C134.85 10.85 135.47 11.09 135.75 11.25C136.37 11.62 136.68 12.13 136.68 12.79C136.68 13.43 136.43 13.94 135.93 14.31C135.43 14.67 134.72 14.86 133.81 14.86C132.93 14.86 132.24 14.69 131.75 14.35C131.15 13.93 130.82 13.27 130.77 12.36H131.93C132.01 12.9 132.2 13.29 132.51 13.52C132.79 13.72 133.22 13.83 133.81 13.83C134.33 13.83 134.75 13.74 135.05 13.57C135.35 13.39 135.51 13.16 135.51 12.86C135.51 12.48 135.28 12.18 134.84 11.96C134.7 11.89 134.24 11.73 133.45 11.49C132.57 11.21 132.02 11.01 131.81 10.89C131.26 10.56 130.99 10.08 130.99 9.44997C130.99 8.81997 131.25 8.31997 131.79 7.95997C132.29 7.60997 132.92 7.43997 133.69 7.43997ZM139.203 7.87997V9.54997H140.353V10.49H139.203V13.41C139.203 13.53 139.223 13.62 139.283 13.69C139.343 13.75 139.423 13.78 139.543 13.78H140.223V14.72H139.353C138.903 14.72 138.573 14.6 138.363 14.36C138.163 14.14 138.063 13.83 138.063 13.41V10.49H137.133V9.54997H138.063V8.34997L139.203 7.87997ZM143.556 9.40997C144.316 9.40997 144.886 9.59997 145.246 9.97997C145.566 10.31 145.726 10.79 145.726 11.42V14.72H144.666V14.04C144.466 14.3 144.216 14.49 143.926 14.63C143.596 14.78 143.206 14.86 142.756 14.86C142.216 14.86 141.796 14.72 141.486 14.45C141.166 14.17 141.006 13.82 141.006 13.39C141.006 12.81 141.226 12.36 141.686 12.05C142.106 11.75 142.696 11.59 143.456 11.57L144.586 11.54V11.34C144.586 10.66 144.216 10.33 143.476 10.33C143.156 10.33 142.906 10.38 142.716 10.5C142.496 10.63 142.346 10.83 142.286 11.1L141.156 11.01C141.266 10.44 141.546 10.02 141.996 9.75997C142.376 9.51997 142.896 9.40997 143.556 9.40997ZM144.586 12.36L143.536 12.39C142.626 12.41 142.176 12.73 142.176 13.35C142.176 13.53 142.246 13.68 142.406 13.8C142.566 13.92 142.766 13.99 143.016 13.99C143.456 13.99 143.826 13.86 144.126 13.61C144.426 13.35 144.586 13.02 144.586 12.62V12.36ZM146.929 7.43997H148.069V11.6L150.189 9.54997H151.659L149.369 11.69L151.859 14.72H150.399L148.589 12.42L148.069 12.91V14.72H146.929V7.43997ZM154.656 9.40997C155.506 9.40997 156.156 9.68997 156.606 10.27C157.016 10.79 157.226 11.52 157.226 12.45H153.356C153.396 12.93 153.526 13.3 153.746 13.55C153.966 13.8 154.286 13.93 154.696 13.93C155.046 13.93 155.326 13.85 155.546 13.69C155.716 13.56 155.866 13.35 156.006 13.06H157.146C157.026 13.54 156.786 13.95 156.426 14.27C155.966 14.66 155.396 14.86 154.706 14.86C153.936 14.86 153.326 14.62 152.876 14.15C152.396 13.66 152.156 12.99 152.156 12.13C152.156 11.36 152.376 10.72 152.836 10.2C153.276 9.66997 153.886 9.40997 154.656 9.40997ZM154.686 10.34C154.306 10.34 154.016 10.44 153.796 10.66C153.586 10.87 153.446 11.18 153.376 11.59H156.036C155.936 10.75 155.486 10.34 154.686 10.34Z" fill="url(#paint0_linear_7361_3027)"/>
    <defs>
        <linearGradient id="paint0_linear_7361_3027" x1="153.055" y1="-11.206" x2="122.563" y2="-2.58959" gradientUnits="userSpaceOnUse">
            <stop stop-color="#D0D0FF"/>
            <stop offset="0.303907" stop-color="#A996F7"/>
            <stop offset="0.505226" stop-color="#7280FE"/>
            <stop offset="1" stop-color="#D3D6FE"/>
        </linearGradient>
        <clipPath id="clip0_7361_3027">
            <rect width="120" height="34.56" fill="white" transform="translate(0 0.719971)"/>
        </clipPath>
    </defs>
</svg>

<svg fill="none" height="36" viewBox="0 0 164 36" width="164" xmlns="http://www.w3.org/2000/svg" xmlns:xlink="http://www.w3.org/1999/xlink"><linearGradient id="a" gradientUnits="userSpaceOnUse" x1="153.055" x2="122.563" y1="-11.206" y2="-2.58959"><stop offset="0" stop-color="#d0d0ff"/><stop offset=".303907" stop-color="#a996f7"/><stop offset=".505226" stop-color="#7280fe"/><stop offset="1" stop-color="#d3d6fe"/></linearGradient><clipPath id="b"><path d="m0 .719971h120v34.56h-120z"/></clipPath><g clip-path="url(#b)" fill="#fff"><path d="m93.5054 13.6524c3.1673 0 6.7656 1.2171 6.9806 5.1116h-4.4283c-.0922-1.1257-1.1377-1.643-2.5215-1.643-1.2915 0-1.8758.4869-1.8758 1.0649 0 .4869.369.9433 1.5375 1.1562l2.7983.4564c2.7983.5173 4.6438 1.856 4.6438 4.4727 0 3.4077-3.1063 4.9899-6.9808 4.9899-3.9053 0-7.0726-1.6126-7.3801-5.5376l4.428.0305c.2153 1.2779 1.2916 1.856 2.8598 1.856 1.3223 0 2.1218-.3956 2.1218-1.0345 0-.4869-.4612-.8824-1.4453-1.0345l-3.0135-.5173c-2.583-.4259-4.3666-1.856-4.3666-4.4422 0-3.1035 2.6753-4.9291 6.6421-4.9291zm-18.6656.0574c1.6269 0 2.9776.4255 4.0827 1.1246v-.7902h4.9729v14.7408h-4.9729v-.8206c-1.1051.699-2.4558 1.1245-4.0827 1.1245-4.0213 0-7.3979-3.3128-7.3979-7.6895 0-4.4071 3.3766-7.6896 7.3979-7.6896zm-29.1278-5.62369 7.4566 11.05869 7.4258-11.05869h3.8824v20.71589h-5.2073v-10.3884l-4.6527 7.0983v.0304h-2.8964v-.0304l-4.6834-7.1592.0308 10.4493h-5.2073v-20.71589zm62.648-.86077v12.36856l5.204-5.5309h5.943l-5.665 6.0172 6.158 8.7218h-5.974l-3.572-5.1054-2.094 2.2184v2.887h-4.988v-21.57666zm-32.5379 10.49646c-2.026 0-3.4994 1.6412-3.4994 3.6776s1.4734 3.6472 3.4994 3.6472c1.1051 0 2.1795-.3039 3.1004-1.3677v-4.559c-.9209-1.0638-1.9953-1.3981-3.1004-1.3981z"/><g clip-rule="evenodd" fill-rule="evenodd"><path d="m17.28 34.32c9.0133 0 16.32-7.3067 16.32-16.32 0-9.01332-7.3067-16.32003-16.32-16.32003-9.01329 0-16.32 7.30671-16.32 16.32003 0 9.0133 7.30671 16.32 16.32 16.32zm17.28-16.32c0 9.5435-7.7365 17.28-17.28 17.28-9.54348 0-17.28-7.7365-17.28-17.28 0-9.54351 7.73652-17.280029 17.28-17.280029 9.5435 0 17.28 7.736519 17.28 17.280029z"/><path d="m27.7098 13.7523v5.7384h-17.4915l-.75259.0001c.79649 3.4819 3.95759 6.0827 7.73589 6.0827 3.1237 0 5.8255-1.7776 7.118-4.3611l3.3902-.0001v4.8203c0 1.141-.9397 2.0659-2.099 2.0659h-16.79185c-1.15923 0-2.09898-.9249-2.09898-2.0659v-12.2803zm-5.4033 7.4601c-1.1132 1.6017-2.9843 2.6529-5.1049 2.6529-2.1205 0-3.9917-1.0512-5.1048-2.6529zm-9.5811-6.0829c-1.6449 0-3.00571 1.1972-3.23203 2.7545h1.78923c.1967-.5994.7683-1.033 1.4428-1.033s1.2461.4336 1.4428 1.033h1.7892c-.2263-1.5573-1.5871-2.7545-3.232-2.7545zm8.979 0c-1.6449 0-3.0057 1.1972-3.232 2.7545h1.7891c.1968-.5994.7684-1.033 1.4429-1.033s1.2461.4336 1.4428 1.033h1.7892c-.2263-1.5573-1.5871-2.7545-3.232-2.7545zm3.9064-7.68956c1.1593 0 2.099.92492 2.099 2.06585v2.52491h-20.98983v-2.52491c0-1.14093.93975-2.06585 2.09898-2.06585z"/></g></g><path d="m124 12.72c0-6.62745 5.373-12.000029 12-12.000029h28v7.999999c0 6.62743-5.373 12.00003-12 12.00003h-28z" fill="#05050a"/><path d="m133.69 7.43997c.84 0 1.5.17 1.97.52.5.37.79.95.86 1.73h-1.16c-.1-.44-.29-.76-.55-.95-.26-.2-.66-.29-1.18-.29-.45 0-.79.06-1.03.19-.3.15-.44.4-.44.74 0 .3.16.55.5.73003.15.08.56.23 1.22.44.97.3 1.59.54 1.87.7.62.37.93.88.93 1.54 0 .64-.25 1.15-.75 1.52-.5.36-1.21.55-2.12.55-.88 0-1.57-.17-2.06-.51-.6-.42-.93-1.08-.98-1.99h1.16c.08.54.27.93.58 1.16.28.2.71.31 1.3.31.52 0 .94-.09 1.24-.26.3-.18.46-.41.46-.71 0-.38-.23-.68-.67-.9-.14-.07-.6-.23-1.39-.47-.88-.28-1.43-.48-1.64-.6-.55-.33-.82-.81-.82-1.44003 0-.63.26-1.13.8-1.49.5-.35 1.13-.52 1.9-.52zm5.513.44v1.67h1.15v.94003h-1.15v2.92c0 .12.02.21.08.28.06.06.14.09.26.09h.68v.94h-.87c-.45 0-.78-.12-.99-.36-.2-.22-.3-.53-.3-.95v-2.92h-.93v-.94003h.93v-1.2zm4.353 1.53c.76 0 1.33.19 1.69.57.32.33003.48.81003.48 1.44003v3.3h-1.06v-.68c-.2.26-.45.45-.74.59-.33.15-.72.23-1.17.23-.54 0-.96-.14-1.27-.41-.32-.28-.48-.63-.48-1.06 0-.58.22-1.03.68-1.34.42-.3 1.01-.46 1.77-.48l1.13-.03v-.2c0-.68-.37-1.01-1.11-1.01-.32 0-.57.05-.76.17-.22.13-.37.33-.43.6l-1.13-.09c.11-.57.39-.99.84-1.25003.38-.24.9-.35 1.56-.35zm1.03 2.95003-1.05.03c-.91.02-1.36.34-1.36.96 0 .18.07.33.23.45s.36.19.61.19c.44 0 .81-.13 1.11-.38.3-.26.46-.59.46-.99zm2.343-4.92003h1.14v4.16003l2.12-2.05003h1.47l-2.29 2.14003 2.49 3.03h-1.46l-1.81-2.3-.52.49v1.81h-1.14zm7.727 1.97c.85 0 1.5.28 1.95.86003.41.52.62 1.25.62 2.18h-3.87c.04.48.17.85.39 1.1s.54.38.95.38c.35 0 .63-.08.85-.24.17-.13.32-.34.46-.63h1.14c-.12.48-.36.89-.72 1.21-.46.39-1.03.59-1.72.59-.77 0-1.38-.24-1.83-.71-.48-.49-.72-1.16-.72-2.02 0-.77.22-1.41.68-1.93.44-.53003 1.05-.79003 1.82-.79003zm.03.93003c-.38 0-.67.1-.89.32-.21.21-.35.52-.42.93h2.66c-.1-.84-.55-1.25-1.35-1.25z" fill="url(#a)"/></svg>
